X: 22216
T: La Complainte Du Folkloriste
R: waltz
M: 3/4
K: Edorian
|:B2|e3 f g2|f3 g a2|g2 d2 B2|G4 F2|E3 F G2|1 A3 G A2|B6-|B4:|2 F3 E D2|E6-|E6||
|:g6|e4 g2|f6|d4 f2|e3 f g2|f3 e d2|e6|B4 c2|
d6|A4 d2|e3 f g2|f3 g a2|g2 f e3|f2 e d3|e6-|1 e6:|2 e4||

